BookReader/images/icon_speaker_open.svg

<?xml version="1.0" encoding="UTF-8" standalone="no"?>
<svg width="28px" height="23px" viewBox="0 0 28 23" version="1.1" xmlns="http://www.w3.org/2000/svg" xmlns:xlink="http://www.w3.org/1999/xlink" aria-labelledby="speakerOpenTitleID speakerOpenDescID">
  <title id="speakerOpenTitleID">Active speaker</title>
  <desc id="speakerOpenDescID">An illustration of an audio speaker with two arcs denoting sound waves</desc>
  <g stroke="none" stroke-width="1" fill="none" fill-rule="evenodd">
    <path d="M16.1221904,0.401414309 C15.8607427,0.267908302 15.5456647,0.286688963 15.3022334,0.449182513 L7.99719973,5.35297657 L0.794398841,5.35297657 C0.355300747,5.35297657 0,5.69960226 0,6.12665817 L0,16.6225984 C0,17.0504708 0.355300747,17.3966882 0.794398841,17.3966882 L8.00767439,17.3966882 L15.3181549,22.0583751 C15.4497167,22.1420715 15.6009709,22.1849404 15.7530631,22.1849404 C15.882949,22.1849404 16.0124159,22.1543197 16.1305701,22.0918536 C16.387409,21.9563062 16.5470429,21.6946018 16.5470429,21.4108505 L16.5470429,1.08609191 C16.5470429,0.798666129 16.3836381,0.534920316 16.1221904,0.401414309 L16.1221904,0.401414309 Z" fill="#fff"></path>
    <path d="M20.1955566,7.26973526 C20.1955566,7.26973526 22.4108887,8.65380859 22.3293457,11.5 C22.2478027,14.3461914 20.1955566,15.7302647 20.1955566,15.7302647" stroke="#fff" stroke-width="2" stroke-linecap="square"></path>
    <path d="M23.2814092,3.91062597 C23.2814092,3.91062597 26.6790433,6.12194824 26.6912516,11.5 C26.7034599,16.8780518 23.2814092,19.089374 23.2814092,19.089374" stroke="#fff" stroke-width="2" stroke-linecap="square"></path>
  </g>
</svg>

<svg width="28" height="23" xmlns="http://www.w3.org/2000/svg" aria-labelledby="speakerOpenTitleID speakerOpenDescID"><g fill="none" fill-rule="evenodd"><path d="M16.122.401a.814.814 0 0 0-.82.048L7.997 5.353H.794A.784.784 0 0 0 0 6.127v10.496c0 .427.355.774.794.774h7.214l7.31 4.661a.81.81 0 0 0 .813.034.772.772 0 0 0 .416-.681V1.086a.77.77 0 0 0-.425-.685z" fill="#fff"/><path d="M20.196 7.27s2.215 1.384 2.133 4.23c-.081 2.846-2.133 4.23-2.133 4.23M23.281 3.91s3.398 2.212 3.41 7.59c.012 5.378-3.41 7.59-3.41 7.59" stroke="#fff" stroke-width="2" stroke-linecap="square"/></g></svg>
